X:1
T:Title
%%score { 1 | 2 }
L:1/8
M:6/8
K:C
V:1 treble nm="Grand Piano"
V:2 bass 
V:1
 z3 z2[Q:1/4=100] [EG] | [Ec]2 [EB] [EA]2 E | G2 ^F =F2 B | d2 B A2 B | [Ec]3- [Ec]2 [Ec] | %5
 c2 A c2 A | [FA]2 [EG] [EG]2 [_EA] | [DB]2 [Gd] [^FB]2 [FA] | G3- G2 G | B2 A G2 D | F2 E E2 G | %11
 [^FA]2 [FA] [FB]2 [Fc] | [FB]3- [FB]2 [FG] | [Ee]2 [Fd] [Ec]2 [EG] | [GB]2 A c2 A | G2 c c2 B | %16
[M:5/8] [Ec]-[Ec]- [Ec]3 |[M:1/8] [EG] |[M:3/4] [EG]2 [CE] [EG]2 [Ec] | [Ge]4- [Ge][Gc] | %20
 c2 A c2 A | [EG]4- [EG][EG] | B2 A F2 B | [EA]2 [EG] [Ec]2 [Ec] | [^Fd]2 [FA] [FB]2 [Fc] | [Fd]6 | %26
[M:1/8] [EG] |[M:3/4] [EG]2 [CE] [EG]2 [Ec] | [Ge]4- [Ge][Gc] | c2 A c2 A | [EG]4- [EG][EG] | %31
 B2 A F2 B | [EA]2 [EG] [Ec]2 [Ec] | d2 A B2 G |[M:5/8] c-c- c3 |] %35
V:2
 z3 z2 [C,C] | [C,G,]2 [C,G,] [C,G,]2 [C,G,C] | [G,E]2 [G,A,_E] [G,B,D]2 [G,DF] | %3
 [G,B,F]2 [G,DF] [G,CF]2 [G,DF] | [C,C]3- [C,C]2 [C,G,] | [F,A,F]2 [F,CF] [F,A,F]2 [F,CF] | %6
 [C,C]2 [C,C] [C,C]2 [C,G,] | [D,G,]2 [D,B,] [D,D]2 [D,C] | [G,B,D]3- [G,B,D]2 [G,B,D] | %9
 [G,DF]2 [G,CF][K:bass] [G,B,D]2 [G,B,] | [C,A,C]2 [C,G,C] [C,G,C]2 [E,CE] | %11
 [D,C]2 [D,C] [D,D]2 [D,D] | [G,D]3- [G,D]2 [G,B,] | [C,C]2 [D,B,] [E,C]2 [C,C] | %14
 [F,C]2[K:treble] [F,CF] [F,A,F]2 [F,CF] | [G,CE]2 [G,CE] [G,DF]2 [G,DF] | %16
[M:5/8][K:bass] [C,C]-[C,C]- [C,C]3 |[M:1/8] [C,C] |[M:3/4] [C,C]2 [C,G,] [C,C]2 [C,G,] | %19
 [C,C]4- [C,C][E,_B,] | [F,A,F]2 [F,CF] [F,A,F]2 [F,CF] | [C,C]4- [C,C][C,C] | %22
 [G,DF]2 [G,CF] [G,B,D]2 [G,DF] | [C,C]2 [C,C] [C,G,]2 [C,C] | [D,C]2 [D,C] [D,D]2 [D,C] | %25
 [G,B,]6 |[M:1/8] [C,C] |[M:3/4] [C,C]2 [C,G,] [C,C]2 [C,G,] | [C,C]4- [C,C][E,_B,] | %29
 [F,A,F]2 [F,CF] [F,A,F]2 [F,CF] | [C,C]4- [C,C][C,C] | [G,DF]2 [G,CF] [G,B,D]2 [G,DF] | %32
 [C,C]2 [C,C] [C,G,]2 [C,C] | [F,A,F]2[K:treble] [F,DF] [G,DF]2 [G,B,F] | %34
[M:5/8] [G,CE]-[G,CE]- [G,CE]3 |] %35

